X:91
T:score179
L:1/8
Q:1/4=96
M:2/4
I:linebreak $
K:C
 (c' | bb b/f/b/f/) | (ee e/c/e/c/) | (fB fB | eg g)(c' |$ bb b/f/b/f/) | (ee e/c/e/c/) | (aB aB | %8
 ce c) z |] %9
